findly-builder/apps/searchassist/src/assets/icons/dashboard/filter.svg

<svg width="14" height="13" viewBox="0 0 14 13" fill="none" xmlns="http://www.w3.org/2000/svg">
<path d="M0.5 0C0.223858 0 0 0.223858 0 0.5C0 0.776142 0.223858 1 0.5 1C0.776142 1 1 0.776142 1 0.5C1 0.223858 0.776142 0 0.5 0ZM10.5 1C10.2239 1 10 1.22386 10 1.5V10.043L8.07838 8.12465C7.88403 7.93063 7.56924 7.93077 7.37505 8.12495C7.18083 8.31917 7.18074 8.63404 7.37486 8.82838L10.1852 11.6419C10.359 11.8159 10.6411 11.816 10.815 11.642L13.625 8.83204C13.821 8.63603 13.8201 8.31798 13.623 8.12306C13.4275 7.92966 13.1124 7.93053 12.918 8.12501L11 10.043V1.5C11 1.22386 10.7761 1 10.5 1ZM0.5 2C0.223858 2 0 2.22386 0 2.5C0 2.77614 0.223858 3 0.5 3H1.5C1.77614 3 2 2.77614 2 2.5C2 2.22386 1.77614 2 1.5 2H0.5ZM0.5 4C0.223858 4 0 4.22386 0 4.5C0 4.77614 0.223858 5 0.5 5H2.5C2.77614 5 3 4.77614 3 4.5C3 4.22386 2.77614 4 2.5 4H0.5ZM0.5 6C0.223858 6 0 6.22386 0 6.5C0 6.77614 0.223858 7 0.5 7H3.5C3.77614 7 4 6.77614 4 6.5C4 6.22386 3.77614 6 3.5 6H0.5ZM0.5 8C0.223858 8 0 8.22386 0 8.5C0 8.77614 0.223858 9 0.5 9H4.5C4.77614 9 5 8.77614 5 8.5C5 8.22386 4.77614 8 4.5 8H0.5ZM0.5 10C0.223858 10 0 10.2239 0 10.5C0 10.7761 0.223858 11 0.5 11H5.5C5.77614 11 6 10.7761 6 10.5C6 10.2239 5.77614 10 5.5 10H0.5ZM0.5 12C0.223858 12 0 12.2239 0 12.5C0 12.7761 0.223858 13 0.5 13H6.5C6.77614 13 7 12.7761 7 12.5C7 12.2239 6.77614 12 6.5 12H0.5Z" fill="#202124"/>
</svg>

<svg width="14" height="13" fill="none" xmlns="http://www.w3.org/2000/svg"><path d="M.5 0a.5.5 0 1 0 0 1 .5.5 0 0 0 0-1Zm10 1a.5.5 0 0 0-.5.5v8.543L8.078 8.125a.498.498 0 0 0-.703.703l2.81 2.814a.445.445 0 0 0 .63 0l2.81-2.81a.5.5 0 0 0-.707-.707L11 10.043V1.5a.5.5 0 0 0-.5-.5ZM.5 2a.5.5 0 0 0 0 1h1a.5.5 0 0 0 0-1h-1Zm0 2a.5.5 0 0 0 0 1h2a.5.5 0 0 0 0-1h-2Zm0 2a.5.5 0 0 0 0 1h3a.5.5 0 0 0 0-1h-3Zm0 2a.5.5 0 0 0 0 1h4a.5.5 0 0 0 0-1h-4Zm0 2a.5.5 0 0 0 0 1h5a.5.5 0 0 0 0-1h-5Zm0 2a.5.5 0 0 0 0 1h6a.5.5 0 0 0 0-1h-6Z" fill="#202124"/></svg>
